!!!COM: Edouard Lalo
!!!CNT: Francais
!!!TXO: Francais
!!!OTL: Amis vive l'orgie
!!!OPR: 6 Me/lodies avec accompagnement de piano
!!!OPS: Op. 17
!!!ONM: No. 6
!!!LYR: Victor Hugo
!!!ENC: Jacob Pegg
!!!YOR: Romantic French Song 1830-1870, David Tunley, ed., New !!!YOR: York: Garland Publishing, Inc., 1995, vol. 3
!!!ODT: 1856/
!!NB: Vocal melody and text only encoded.
!!NB: First instance of melodic material only encoded.
**kern	**silbe
*clef G2	*
*k[f#c#g#d#a#]	*
*M6/8	*
=8	=8
4r	.
{8f#	{A-
4f#	-mis
[8b	vi-
=9	=9
8b]	|
8a#	-ve,
[8cc#	vi-
8cc#]	|
8a#	-ve
8f#	l'or-
=10	=10
[8f#	-gi-
16f#]}	-e,}
16r	.
{[8dd#	{J'ai-
4dd#]	|
[8ee	-me
=11	=11
4ee]	|
[8a#	la
8a#]	|
8a#	fol-
8b	-le
=12	=12
8cc#}	nuit,}
8r	.
{[8f#	{Et
8f#]	|
8f#	la
[8b	nap-
=13	=13
8b]	-pe
8a#	et
8b	la
8cc#	nap-
8a#	-pe
8f#	rou-
=14	=14
4f#	-gi-
[8dd#	-e Et
8dd#]	|
8dd#	les
[8ee	chants
=15	=15
4ee]	|
[8a#	et
8a#]	|
(8b	le
8cc#)	|
=16	=16
8b}	bruit;}
8r	.
{[8g#	{Les
8g#]	|
8f#	da-
8e#	-mes
=17	=17
(8f#	peu
8g#)	|
8a#	se/-
(8g#	-ve\-
8f#	|
8e#)	|
=18	=18
8f#}	-res}
8r	.
{[8a#	{Les
8a#]	|
8g#	ca-
8f##	-va-
=19	=19
(8g#	-liers
8a#	|
8b)	|
(8a#	joy-
8g#	|
8f##)	|
=20	=20
8g#}	-eux,}
8r	.
{8cc#	{Le
(8cc#	vin
8dd#)	|
8cc#	dans
=21	=21
(8b	tous
8a#)	|
8b	les
(8f#	ver-
8e#	|
8f#)	|
=22	=22
8a#}	-res,}
8r	.
{8cc#	{L'am-
[4.ff#	-our
=23	=23
8ff#]	|
8cc#	l'am-
8a#	-our
8c#	dans
8.g#	tous
16f#	les
=24	=24
8f#}	veux!}
8r	.
{8f#	{La
4f#	tom-
8b	-be est
=25	=25
8b	noi-
8a#	-re,
[8cc#	Les
8cc#]	|
8a#	ans
8f#	sont
=26	=26
4f#}	courts,}
{8dd#	{Il
4dd#	faut
8ee	sans
=27	=27
4ee	croire
[8a#	Aux
8a#]	|
8a#	sols
8b	dis-
=28	=28
4cc#}	-cours,}
{[8f#	{Tres
8f#]	|
8f#	sou-
[8b	-vent
=29	=29
8b]	|
8a#	boire
8b	ai-
(8cc#	-mer
8a#)	|
8f#	tou-
=30	=30
4f#}	-jours,}
{[8dd#	{Tre\s
8dd#]	|
8dd#	sou-
8ee	-vent
=31	=31
4ee	boire.
[8a#	Ai-
8a#]	|
8b	-mer
8cc#	tou-
=32	=32
8b}	-jours!}
8r	.
8r	.
4r	.
8r	.
=33	=33
2.r	.
=34	=34
4.r	.
4.r	.
=35	=35
4r	.
8r	.
4r	.
{8f#	{Dans
=36	=36
*k[f#c#]	*
4f#	la
8b	dou-
4dd	-ce I -
8b	-ta=
=37	=37
(4b	-li-
8a#)	|
4a#}	-e}
{8f#	{Qu'e/-
=38	=38
4f#	-claire
8dd	un
4dd	si
8b	doux
=39	=39
[4.a#	ciel,
8a#]}	|}
8r	.
{8f#	{Tout
=40	=40
4f#	est
8b	joie
4b	et
8b	fo-
=41	=41
(4b	-li-
8a#)	|
4a#}	-e,}
{8a#	{Tout
=42	=42
4a#	est
8g#	nec-
4g#	-tar
8cc#	et
=43	=43
[4.cc#	miel!
8cc#]}	|}
8r	.
{8ee	{Ay-
=44	=44
4ee	-ons
8cc#	donc
4cc#	a\
8dd	nos
=45	=45
!!dot added
[4.ee	fe^-
8ee]}	-tes}
8r	.
{8ffn	{Les
=46	=46
4ffn	fleurs
8dd	et
4dd	les
8ee	beau-
=47	=47
[4.ffn	-te/s
8ffn]}	|}
8r	.
{8ff#	{La
=48	=48
4ff#	ro-
8ee	-se
4dd	sur
8dd	nos
=49	=49
(4dd	te^-
8cc#)	|
4b}	-tes,}
8r	.
!!8r substituted for pickup to m. 50
!!mm. 50 - 69 is a written-out repeat of measures 36-50. 
!!voice tacit mm. 70 & 71
!!mm. 72-96 is identical to mm. 8-32
!!mm.96 to the end is not exactly melodic
!!but it's encoded here anyway
=96	=96
8r	.
!!last 8r subbed for end of last phrase (commented out above)
8r	.
{[8b	{Tre\s
8b]	|
8b	sou-
8ff#	-vent
=97	=97
[2.ff#	boi-
=98	=98
4ff#]}	-re}
{[8b	{Ai-
8b]	|
8b	-mer
8ff#	tou-
=99	=99
[2.ff#	-jours
=100	=100
2.ff#_	|
=101	=101
2.ff#_	|
=102	=102
4.ff#_	|
8ff#]}	|}
8r	.
{8f#	{tou-
=103	=103
[2.b	jours!
=104	=104
8b]}	|}
8r	.
8r	.
4r	.
8r	.
*-	*-
